nova/resources/svg/fluent/folder.svg

<svg viewBox="0 0 24 24" fill="none" xmlns="http://www.w3.org/2000/svg">
<path d="M8.20693 4C8.66749 4 9.1153 4.14129 9.49094 4.40235L9.64734 4.5215L12.022 6.5H19.75C20.8867 6.5 21.8266 7.34297 21.9785 8.43788L21.9948 8.59595L22 8.75V17.75C22 18.9409 21.0748 19.9156 19.904 19.9948L19.75 20H4.25C3.05914 20 2.08436 19.0748 2.00519 17.904L2 17.75V6.25C2 5.05914 2.92516 4.08436 4.09595 4.00519L4.25 4H8.20693ZM9.64734 9.9785C9.29353 10.2733 8.85906 10.4515 8.40335 10.4914L8.20693 10.5L3.5 10.499V17.75C3.5 18.1297 3.78215 18.4435 4.14823 18.4932L4.25 18.5H19.75C20.1297 18.5 20.4435 18.2178 20.4932 17.8518L20.5 17.75V8.75C20.5 8.3703 20.2178 8.05651 19.8518 8.00685L19.75 8H12.021L9.64734 9.9785ZM8.20693 5.5H4.25C3.8703 5.5 3.55651 5.78215 3.50685 6.14823L3.5 6.25V8.999L8.20693 9C8.34729 9 8.4841 8.96063 8.60221 8.88738L8.68706 8.82617L10.578 7.249L8.68706 5.67383C8.57923 5.58398 8.44893 5.52664 8.31129 5.5073L8.20693 5.5Z" fill="currentColor"/>
</svg>

<svg viewBox="0 0 24 24" fill="none" xmlns="http://www.w3.org/2000/svg"><path d="M8.207 4c.46 0 .908.141 1.284.402l.156.12L12.022 6.5h7.728a2.25 2.25 0 012.229 1.938l.016.158.005.154v9a2.25 2.25 0 01-2.096 2.245L19.75 20H4.25a2.25 2.25 0 01-2.245-2.096L2 17.75V6.25a2.25 2.25 0 012.096-2.245L4.25 4h3.957zm1.44 5.979a2.25 2.25 0 01-1.244.512l-.196.009-4.707-.001v7.251c0 .38.282.694.648.743l.102.007h15.5a.75.75 0 00.743-.648l.007-.102v-9a.75.75 0 00-.648-.743L19.75 8h-7.729L9.647 9.979zM8.207 5.5H4.25a.75.75 0 00-.743.648L3.5 6.25v2.749L8.207 9a.75.75 0 00.395-.113l.085-.06 1.891-1.578-1.89-1.575a.75.75 0 00-.377-.167L8.207 5.5z" fill="currentColor"/></svg>
